src/assets/images/BadgeGoogle.svg

<svg fill="none" height="40" viewBox="0 0 134 40" width="134" xmlns="http://www.w3.org/2000/svg"><rect fill="#313ebd" height="40" rx="5" width="134"/><path clip-rule="evenodd" d="m45.6282 9.49248c.0348.76452-.2396 1.51022-.7593 2.06292-.5806.6145-1.3905.9483-2.2272.918-1.2834-.0102-2.4357-.8033-2.9241-2.0125-.4885-1.20915-.2179-2.59882.6867-3.52643.5877-.61132 1.3977-.94738 2.2374-.92832.428-.00145.8517.08631 1.2452.25787.3663.15054.6925.38737.9517.69108l-.5366.54667c-.4097-.49647-1.0247-.76773-1.6603-.73234-.639-.00319-1.2517.25899-1.6968.72609-.4451.46709-.6842 1.09879-.6621 1.74941-.0136.98317.5547 1.87817 1.4406 2.26847.8858.3903 1.9151.1993 2.609-.484.3115-.344.4912-.7907.5062-1.25842h-2.1969v-.74265h2.946c.027.15318.0406.30852.0405.46415zm4.6368-2.57864h-2.7335v1.95977h2.4905v.74265h-2.4905v1.95974h2.7335v.7633h-3.5434v-6.18874h3.5434zm3.3207 5.42546h-.7796v-5.42546h-1.7008v-.76328h4.2217v.76328h-1.7413zm4.7177 0v-6.18874h.7796v6.18874zm4.242 0h-.7796v-5.42546h-1.7008v-.76328h4.1711v.76328h-1.6907zm9.5975-.8045c-1.2321 1.2483-3.2225 1.2483-4.4546 0-1.1943-1.2881-1.1943-3.30197 0-4.59002.5892-.60469 1.391-.94478 2.2273-.94478s1.638.34009 2.2273.94478c1.1994 1.28598 1.1994 3.30402 0 4.59002zm-3.8775-.5158c.9125.9258 2.3879.9258 3.3004 0 .8962-1.0065.8962-2.54165 0-3.54817-.9125-.92581-2.3879-.92581-3.3004 0-.8962 1.00652-.8962 2.54167 0 3.54817zm5.8719 1.3203v-6.18874h.9516l2.9562 4.81694v-4.81694h.7796v6.18874h-.8099l-3.0878-5.04382v5.04382zm-7.5322 9.0253c1.1496-.0225 2.2589.4314 3.0739 1.2578.8149.8264 1.2657 1.9545 1.249 3.1259 0 2.4183-1.9223 4.3798-4.296 4.3836-2.3736.0038-4.3019-1.9516-4.3093-4.37-.0075-2.4183 1.9087-4.386 4.2824-4.3973zm0 7.0448c.6715-.0158 1.3082-.3074 1.7657-.8085.4575-.501.697-1.1691.664-1.8526-.0026-1.0927-.6605-2.0727-1.6591-2.4713s-2.1348-.1348-2.8653.6652c-.7305.8001-.9067 1.9737-.4444 2.9597.4623.9859 1.4692 1.5838 2.5391 1.5075zm-9.4254-7.0448h-.0102c1.1496-.0225 2.259.4314 3.0739 1.2578.815.8264 1.2657 1.9545 1.2491 3.1259 0 2.4197-1.9244 4.3818-4.2994 4.3836-2.3749.0019-4.3023-1.9571-4.306-4.3768s1.9176-4.3848 4.2926-4.3905zm0 7.0448h-.0102c.6715-.0158 1.3083-.3074 1.7658-.8085.4575-.501.6969-1.1691.664-1.8526-.0029-1.0936-.6622-2.074-1.662-2.4717-.9998-.3978-2.1367-.1318-2.8661.6704-.7295.8023-.9029 1.9775-.4374 2.9628.4656.9853 1.4754 1.5802 2.5459 1.4996zm-11.2275-5.6936 6.1452-.0516c.0706.3843.1045.7746.1013 1.1656.0476 1.6047-.5187 3.1654-1.5794 4.3527-1.2121 1.2931-2.9139 1.9889-4.6671 1.9082-2.4511.0972-4.7579-1.1797-6.0118-3.3275-1.2538-2.1479-1.2538-4.8226 0-6.9705 1.2539-2.1479 3.5607-3.4247 6.0118-3.3276 1.7218-.0152 3.3763.6807 4.5861 1.9289l-1.2857 1.3099c-.8871-.8725-2.0776-1.3511-3.3105-1.3306-2.6839 0-4.8595 2.2167-4.8595 4.951 0 2.7344 2.1756 4.951 4.8595 4.951 1.262.0513 2.4864-.4433 3.3712-1.3615.5871-.6418.9439-1.4669 1.0124-2.3414h-4.3735zm45.8716 1.444.2126.4642-5.7605 2.4239c.3611.8377 1.1881 1.3654 2.0855 1.3306.8665.0022 1.6702-.4601 2.1159-1.2171l1.468 1.0314c-.7991 1.2186-2.1454 1.9471-3.5839 1.9392-1.1434.017-2.2445-.4404-3.0503-1.2671-.8057-.8268-1.2468-1.9518-1.222-3.1166-.0699-1.1382.3256-2.2552 1.0928-3.0856.7671-.8305 1.8375-1.3004 2.9568-1.2981 1.6785.0629 3.1446 1.175 3.6851 2.7952zm-5.8719 1.4647 3.8471-1.6297c-.3026-.6079-.932-.9731-1.5995-.9283-.6333.0291-1.2285.3167-1.6513.7979s-.6377 1.1156-.5963 1.7601zm-4.6772 4.2496v-12.8932h1.8931v12.8932zm-3.098-7.5297v-.722h1.7414v7.8082c0 3.2387-1.8325 4.5693-4.0496 4.5693-1.6713.0102-3.1813-1.0141-3.8168-2.5889l1.6503-.7014c.3449.919 1.201 1.5345 2.1665 1.5575 1.4173 0 2.2981-.8974 2.2981-2.5787v-.6292h-.0607c-.569.6687-1.3993 1.0464-2.2678 1.0315-2.298-.1135-4.1039-2.0448-4.1039-4.3889 0-2.344 1.8059-4.2753 4.1039-4.3888.8657-.0012 1.6907.3741 2.2678 1.0314zm-2.1665 6.065h-.0101c.658-.0258 1.2769-.3247 1.7129-.8274.4361-.5027.6512-1.1653.5953-1.8337.05-.6654-.1658-1.3232-.5984-1.8242-.4327-.501-1.0456-.8028-1.6997-.837-1.3537.1215-2.3919 1.2766-2.3919 2.6612 0 1.3845 1.0382 2.5396 2.3919 2.6611zm24.6928-11.4285c1.47-.1077 2.877.6307 3.644 1.9134.768 1.2826.768 2.8946 0 4.1773-.767 1.2827-2.174 2.021-3.644 1.9134h-2.6428v4.8891h-1.8932v-12.8932zm-.011 6.1887.041.031c1.199 0 2.171-.9906 2.171-2.2125s-.972-2.2125-2.171-2.2125h-2.6829v4.394zm11.673-1.8566.051.0309c2.156 0 3.837 1.31 3.837 3.5689v4.9613h-1.822v-1.0315h-.061c-.527.8342-1.459 1.3088-2.43 1.2378-.788.0593-1.566-.2086-2.157-.7429-.591-.5342-.945-1.2894-.981-2.0936 0-1.867 1.832-2.8984 3.644-2.8984.688-.003 1.366.1671 1.974.4951v-.1341c-.048-.4955-.289-.9506-.67-1.2628-.381-.3123-.869-.4556-1.354-.3979-.708-.0589-1.383.3133-1.721.949l-1.681-.7117c.639-1.282 1.963-2.0559 3.371-1.9701zm-.233 7.0655.051.0309c1.141-.0283 2.086-.9083 2.217-2.0629-.525-.2987-1.119-.4483-1.721-.4332-.951 0-2.025.3404-2.025 1.3718 0 .7736.861 1.0934 1.478 1.0934zm10.762-6.7561h2.106l-5.183 12.1609h-1.975l1.924-4.3424-3.371-7.8185h2.024l2.248 5.5905h.061zm-17.018 8.2517v-12.8932h1.893v12.8932zm-73.3222-10.7205c.2514.1454.4017.4057.4016.6962 0 .2904-.1502.5507-.4017.6958l-4.5642 2.6344-3.204-3.0972 3.5057-3.3888zm-4.9861-2.8776-3.3599 3.2482-11.6111-11.2242 10.2802 5.268zm-14.8002 15.424 11.4403-11.0587 3.0582 2.9566-4.3714 2.5235zm-.8566-22.94565 11.7191 11.32825-11.73 11.3391z" fill="#f5f9fc" fill-rule="evenodd"/></svg>

<svg width="134" height="40" viewBox="0 0 134 40" fill="none" xmlns="http://www.w3.org/2000/svg">
<rect width="134" height="40" rx="5" fill="#313EBD"/>
<path fill-rule="evenodd" clip-rule="evenodd" d="M45.6282 9.49248C45.663 10.257 45.3886 11.0027 44.8689 11.5554C44.2883 12.1699 43.4784 12.5037 42.6417 12.4734C41.3583 12.4632 40.206 11.6701 39.7176 10.4609C39.2291 9.25175 39.4997 7.86208 40.4043 6.93447C40.992 6.32315 41.802 5.98709 42.6417 6.00615C43.0697 6.0047 43.4934 6.09246 43.8869 6.26402C44.2532 6.41456 44.5794 6.65139 44.8386 6.9551L44.302 7.50177C43.8923 7.0053 43.2773 6.73404 42.6417 6.76943C42.0027 6.76624 41.39 7.02842 40.9449 7.49552C40.4998 7.96261 40.2607 8.59431 40.2828 9.24493C40.2692 10.2281 40.8375 11.1231 41.7234 11.5134C42.6092 11.9037 43.6385 11.7127 44.3324 11.0294C44.6439 10.6854 44.8236 10.2387 44.8386 9.77098H42.6417V9.02833H45.5877C45.6147 9.18151 45.6283 9.33685 45.6282 9.49248ZM50.265 6.91384H47.5315V8.87361H50.022V9.61626H47.5315V11.576H50.265V12.3393H46.7216V6.15056H50.265V6.91384ZM53.5857 12.3393H52.8061V6.91384H51.1053V6.15056H55.327V6.91384H53.5857V12.3393ZM58.3034 12.3393V6.15056H59.083V12.3393H58.3034ZM62.5454 12.3393H61.7658V6.91384H60.065V6.15056H64.2361V6.91384H62.5454V12.3393ZM72.1429 11.5348C70.9108 12.7831 68.9204 12.7831 67.6883 11.5348C66.494 10.2467 66.494 8.23283 67.6883 6.94478C68.2775 6.34009 69.0793 6 69.9156 6C70.7519 6 71.5536 6.34009 72.1429 6.94478C73.3423 8.23076 73.3423 10.2488 72.1429 11.5348ZM68.2654 11.019C69.1779 11.9448 70.6533 11.9448 71.5658 11.019C72.462 10.0125 72.462 8.47735 71.5658 7.47083C70.6533 6.54502 69.1779 6.54502 68.2654 7.47083C67.3692 8.47735 67.3692 10.0125 68.2654 11.019ZM74.1373 12.3393V6.15056H75.0889L78.0451 10.9675V6.15056H78.8247V12.3393H78.0148L74.927 7.29548V12.3393H74.1373ZM66.6051 21.3646C67.7547 21.3421 68.864 21.796 69.679 22.6224C70.4939 23.4488 70.9447 24.5769 70.928 25.7483C70.928 28.1666 69.0057 30.1281 66.632 30.1319C64.2584 30.1357 62.3301 28.1803 62.3227 25.7619C62.3152 23.3436 64.2314 21.3759 66.6051 21.3646ZM66.6051 28.4094C67.2766 28.3936 67.9133 28.102 68.3708 27.6009C68.8283 27.0999 69.0678 26.4318 69.0348 25.7483C69.0322 24.6556 68.3743 23.6756 67.3757 23.277C66.3771 22.8784 65.2409 23.1422 64.5104 23.9422C63.7799 24.7423 63.6037 25.9159 64.066 26.9019C64.5283 27.8878 65.5352 28.4857 66.6051 28.4094ZM57.1797 21.3646H57.1695C58.3191 21.3421 59.4285 21.796 60.2434 22.6224C61.0584 23.4488 61.5091 24.5769 61.4925 25.7483C61.4925 28.168 59.5681 30.1301 57.1931 30.1319C54.8182 30.1338 52.8908 28.1748 52.8871 25.7551C52.8834 23.3354 54.8047 21.3703 57.1797 21.3646ZM57.1797 28.4094H57.1695C57.841 28.3936 58.4778 28.102 58.9353 27.6009C59.3928 27.0999 59.6322 26.4318 59.5993 25.7483C59.5964 24.6547 58.9371 23.6743 57.9373 23.2766C56.9375 22.8788 55.8006 23.1448 55.0712 23.947C54.3417 24.7493 54.1683 25.9245 54.6338 26.9098C55.0994 27.8951 56.1092 28.49 57.1797 28.4094ZM45.9522 22.7158L52.0974 22.6642C52.168 23.0485 52.2019 23.4388 52.1987 23.8298C52.2463 25.4345 51.68 26.9952 50.6193 28.1825C49.4072 29.4756 47.7054 30.1714 45.9522 30.0907C43.5011 30.1879 41.1943 28.911 39.9404 26.7632C38.6866 24.6153 38.6866 21.9406 39.9404 19.7927C41.1943 17.6448 43.5011 16.368 45.9522 16.4651C47.674 16.4499 49.3285 17.1458 50.5383 18.394L49.2526 19.7039C48.3655 18.8314 47.175 18.3528 45.9421 18.3733C43.2582 18.3733 41.0826 20.59 41.0826 23.3243C41.0826 26.0587 43.2582 28.2753 45.9421 28.2753C47.2041 28.3266 48.4285 27.832 49.3133 26.9138C49.9004 26.272 50.2572 25.4469 50.3257 24.5724H45.9522V22.7158ZM91.8238 24.1598L92.0364 24.624L86.2759 27.0479C86.637 27.8856 87.464 28.4133 88.3614 28.3785C89.2279 28.3807 90.0316 27.9184 90.4773 27.1614L91.9453 28.1928C91.1462 29.4114 89.7999 30.1399 88.3614 30.132C87.218 30.149 86.1169 29.6916 85.3111 28.8649C84.5054 28.0381 84.0643 26.9131 84.0891 25.7483C84.0192 24.6101 84.4147 23.4931 85.1819 22.6627C85.949 21.8322 87.0194 21.3623 88.1387 21.3646C89.8172 21.4275 91.2833 22.5396 91.8238 24.1598ZM85.9519 25.6245L89.799 23.9948C89.4964 23.3869 88.867 23.0217 88.1995 23.0665C87.5662 23.0956 86.971 23.3832 86.5482 23.8644C86.1254 24.3456 85.9105 24.98 85.9519 25.6245ZM81.2747 29.8741V16.9809H83.1678V29.8741H81.2747ZM78.1767 22.3444V21.6224H79.9181V29.4306C79.9181 32.6693 78.0856 33.9999 75.8685 33.9999C74.1972 34.0101 72.6872 32.9858 72.0517 31.411L73.702 30.7096C74.0469 31.6286 74.903 32.2441 75.8685 32.2671C77.2858 32.2671 78.1666 31.3697 78.1666 29.6884V29.0592H78.1059C77.5369 29.7279 76.7066 30.1056 75.8381 30.0907C73.5401 29.9772 71.7342 28.0459 71.7342 25.7018C71.7342 23.3578 73.5401 21.4265 75.8381 21.313C76.7038 21.3118 77.5288 21.6871 78.1059 22.3444H78.1767ZM76.0102 28.4094H76.0001C76.6581 28.3836 77.277 28.0847 77.713 27.582C78.1491 27.0793 78.3642 26.4167 78.3083 25.7483C78.3583 25.0829 78.1425 24.4251 77.7099 23.9241C77.2772 23.4231 76.6643 23.1213 76.0102 23.0871C74.6565 23.2086 73.6183 24.3637 73.6183 25.7483C73.6183 27.1328 74.6565 28.2879 76.0102 28.4094ZM100.703 16.9809C102.173 16.8732 103.58 17.6116 104.347 18.8943C105.115 20.1769 105.115 21.7889 104.347 23.0716C103.58 24.3543 102.173 25.0926 100.703 24.985H98.0602V29.8741H96.167V16.9809H100.703ZM100.692 23.1696L100.733 23.2006C101.932 23.2006 102.904 22.21 102.904 20.9881C102.904 19.7662 101.932 18.7756 100.733 18.7756H98.0501V23.1696H100.692ZM112.365 21.313L112.416 21.3439C114.572 21.3439 116.253 22.6539 116.253 24.9128V29.8741H114.431V28.8426H114.37C113.843 29.6768 112.911 30.1514 111.94 30.0804C111.152 30.1397 110.374 29.8718 109.783 29.3375C109.192 28.8033 108.838 28.0481 108.802 27.2439C108.802 25.3769 110.634 24.3455 112.446 24.3455C113.134 24.3425 113.812 24.5126 114.42 24.8406V24.7065C114.372 24.211 114.131 23.7559 113.75 23.4437C113.369 23.1314 112.881 22.9881 112.396 23.0458C111.688 22.9869 111.013 23.3591 110.675 23.9948L108.994 23.2831C109.633 22.0011 110.957 21.2272 112.365 21.313ZM112.132 28.3785L112.183 28.4094C113.324 28.3811 114.269 27.5011 114.4 26.3465C113.875 26.0478 113.281 25.8982 112.679 25.9133C111.728 25.9133 110.654 26.2537 110.654 27.2851C110.654 28.0587 111.515 28.3785 112.132 28.3785ZM122.894 21.6224H125L119.817 33.7833H117.842L119.766 29.4409L116.395 21.6224H118.419L120.667 27.2129H120.728L122.894 21.6224ZM105.876 29.8741V16.9809H107.769V29.8741H105.876ZM32.5538 19.1536C32.8052 19.299 32.9555 19.5593 32.9554 19.8498C32.9554 20.1402 32.8052 20.4005 32.5537 20.5456L27.9895 23.18L24.7855 20.0828L28.2912 16.694L32.5538 19.1536ZM27.5677 16.276L24.2078 19.5242L12.5967 8.3L22.8769 13.568L27.5677 16.276ZM12.7675 31.7L24.2078 20.6413L27.266 23.5979L22.8946 26.1214L12.7675 31.7ZM11.9109 8.75435L23.63 20.0826L11.9 31.4217L11.9109 8.75435Z" fill="#F5F9FC"/>
</svg>
